assets/images/script/j-2-top.svg

<svg fill="none" height="154" viewBox="0 0 362 154" width="362" xmlns="http://www.w3.org/2000/svg"><path d="m89.8083 136.725c.8838 0-1.0465-.161-.5691.854 2.7221 5.784 12.3138 9.259 17.8708 10.529 13.382 3.057 28.118 1.574 40.922-3.074 9.352-3.395 23.533-13.013 28.742-22.326 10.134-18.12-40.737-27.0096-48.605-28.6851-32.0427-6.823-67.5328-10.6612-100.056-4.8946-8.0725 1.4313-15.9314 3.9944-23.84721 6.0898-3.426097.9069.00219-.4036 1.08138-1.4228 9.10833-8.6024 18.46813-16.6093 28.79873-23.7903 33.5658-23.3324 71.0391-38.047 110.0731-50.0443 17.147-5.2706 34.594-10.40646 52.247-13.71644 10.729-2.01169 23.56-5.10097 34.49-2.78881 17.652 3.73399 16.862 27.11535 18.668 41.20615 3.524 27.4866 5.119 52.2533 10.245 79.5264.248 1.318 7.363 29.058 9.448 27.205 2.334-2.076.858-9.099 1.073-13.408.61-12.223.921-22.856 8.57-31.896 8.802-10.4026 27.152-13.5538 40.068-11.8384 12.283 1.6313 21.127 5.8644 33.807 2.8457 3.608-.8589 10.397-2.6085 3.529-4.3255" stroke="#000" stroke-linecap="round" stroke-width="5"/></svg>

<svg width="362" height="154" viewBox="0 0 362 154" fill="none" xmlns="http://www.w3.org/2000/svg">
<path d="M89.8083 136.725C90.6921 136.725 88.7618 136.564 89.2392 137.579C91.9613 143.363 101.553 146.838 107.11 148.108C120.492 151.165 135.228 149.682 148.032 145.034C157.384 141.639 171.565 132.021 176.774 122.708C186.908 104.588 136.037 95.6984 128.169 94.0229C96.1263 87.1999 60.6362 83.3617 28.113 89.1283C20.0405 90.5596 12.1816 93.1227 4.26579 95.2181C0.839693 96.125 4.26798 94.8145 5.34717 93.7953C14.4555 85.1929 23.8153 77.186 34.1459 70.005C67.7117 46.6726 105.185 31.958 144.219 19.9607C161.366 14.6901 178.813 9.55424 196.466 6.24426C207.195 4.23257 220.026 1.14329 230.956 3.45545C248.608 7.18944 247.818 30.5708 249.624 44.6616C253.148 72.1482 254.743 96.9149 259.869 124.188C260.117 125.506 267.232 153.246 269.317 151.393C271.651 149.317 270.175 142.294 270.39 137.985C271 125.762 271.311 115.129 278.96 106.089C287.762 95.6864 306.112 92.5352 319.028 94.2506C331.311 95.8819 340.155 100.115 352.835 97.0963C356.443 96.2374 363.232 94.4878 356.364 92.7708" stroke="black" stroke-width="5" stroke-linecap="round"/>
</svg>
